X:284
T: Hovertchen (3-86), S. 237
N: P1059
O: Lothringen
S: PINCK, Louis: Verklingende Weisen, Bd3, Metz 1933]
R: Fenstergangslied]
M: 4/4
L: 1/16
K: D
A2 | A6G2E2E2z2B2 | B3AA3GF4z2
A2 | A6G2E2E2z2
B2 | B3AA3GF4
D2F2 | A4A4G4A4 | F4d4B4
B2B2 | A6B2A4A4 | F8z6

